assets/img/braze_icons/compass-01.svg

<svg fill="none" height="24" viewBox="0 0 24 24" width="24" xmlns="http://www.w3.org/2000/svg"><path clip-rule="evenodd" d="m12 1c-6.07513 0-11 4.92487-11 11 0 6.0751 4.92487 11 11 11 6.0751 0 11-4.9249 11-11 0-6.07513-4.9249-11-11-11zm.8 3.0002c0-.44183-.3582-.8-.8-.8s-.8.35817-.8.8v1.6c0 .44182.3582.8.8.8s.8-.35818.8-.8zm-7.02255 1.77708c.31242-.31242.81895-.31242 1.13137 0l1.13137 1.13137c.31242.31242.31242.81896 0 1.13137-.31242.31242-.81895.31242-1.13137 0l-1.13137-1.13137c-.31242-.31242-.31242-.81895 0-1.13137zm-2.57745 6.22292c0-.4418.35817-.8.8-.8h1.6c.44182 0 .8.3582.8.8s-.35818.8-.8.8h-1.6c-.44183 0-.8-.3582-.8-.8zm14.4 0c0-.4418.3582-.8.8-.8h1.6c.4418 0 .8.3582.8.8s-.3582.8-.8.8h-1.6c-.4418 0-.8-.3582-.8-.8zm-.5088 3.9597c-.3124-.3124-.819-.3124-1.1314 0s-.3124.819 0 1.1314l1.1314 1.1313c.3124.3125.8189.3125 1.1313 0 .3125-.3124.3125-.8189 0-1.1313zm1.1313-10.18262c.3125.31242.3125.81895 0 1.13137l-1.1313 1.13137c-.3124.31242-.819.31242-1.1314 0-.3124-.31241-.3124-.81895 0-1.13137l1.1314-1.13137c.3124-.31242.8189-.31242 1.1313 0zm-6.2225 11.82282c.4418 0 .8.3582.8.8v1.6c0 .4418-.3582.8-.8.8s-.8-.3582-.8-.8v-1.6c0-.4418.3582-.8.8-.8zm-3.95981-1.6402c.31242.3124.31242.819 0 1.1314l-1.13137 1.1313c-.31242.3125-.81895.3125-1.13137 0-.31242-.3124-.31242-.8189 0-1.1313l1.13137-1.1314c.31242-.3124.81895-.3124 1.13137 0zm3.95981-6.9599c.3513 0 .6768.1843.8575.4855l.6214 1.0356 1.0356.6214c.3012.1807.4855.5062.4855.8575s-.1843.6768-.4855.8575l-1.0356.6214-.6214 1.0356c-.1807.3012-.5062.4855-.8575.4855s-.6768-.1843-.8575-.4855l-.6214-1.0356-1.0356-.6214c-.3012-.1807-.4855-.5062-.4855-.8575s.1843-.6768.4855-.8575l1.0356-.6214.6214-1.0356c.1807-.3012.5062-.4855.8575-.4855z" fill="#801ed7" fill-rule="evenodd"/></svg>

<svg width="24" height="24" viewBox="0 0 24 24" fill="none" xmlns="http://www.w3.org/2000/svg">
<path fill-rule="evenodd" clip-rule="evenodd" d="M12 1C5.92487 1 1 5.92487 1 12C1 18.0751 5.92487 23 12 23C18.0751 23 23 18.0751 23 12C23 5.92487 18.0751 1 12 1ZM12.8 4.0002C12.8 3.55837 12.4418 3.2002 12 3.2002C11.5582 3.2002 11.2 3.55837 11.2 4.0002V5.6002C11.2 6.04202 11.5582 6.4002 12 6.4002C12.4418 6.4002 12.8 6.04202 12.8 5.6002V4.0002ZM5.77745 5.77728C6.08987 5.46486 6.5964 5.46486 6.90882 5.77728L8.04019 6.90865C8.35261 7.22107 8.35261 7.72761 8.04019 8.04002C7.72777 8.35244 7.22124 8.35244 6.90882 8.04002L5.77745 6.90865C5.46503 6.59623 5.46503 6.0897 5.77745 5.77728ZM3.2 12.0002C3.2 11.5584 3.55817 11.2002 4 11.2002H5.6C6.04182 11.2002 6.4 11.5584 6.4 12.0002C6.4 12.442 6.04182 12.8002 5.6 12.8002H4C3.55817 12.8002 3.2 12.442 3.2 12.0002ZM17.6 12.0002C17.6 11.5584 17.9582 11.2002 18.4 11.2002H20C20.4418 11.2002 20.8 11.5584 20.8 12.0002C20.8 12.442 20.4418 12.8002 20 12.8002H18.4C17.9582 12.8002 17.6 12.442 17.6 12.0002ZM17.0912 15.9599C16.7788 15.6475 16.2722 15.6475 15.9598 15.9599C15.6474 16.2723 15.6474 16.7789 15.9598 17.0913L17.0912 18.2226C17.4036 18.5351 17.9101 18.5351 18.2225 18.2226C18.535 17.9102 18.535 17.4037 18.2225 17.0913L17.0912 15.9599ZM18.2225 5.77728C18.535 6.0897 18.535 6.59623 18.2225 6.90865L17.0912 8.04002C16.7788 8.35244 16.2722 8.35244 15.9598 8.04002C15.6474 7.72761 15.6474 7.22107 15.9598 6.90865L17.0912 5.77728C17.4036 5.46486 17.9101 5.46486 18.2225 5.77728ZM12 17.6001C12.4418 17.6001 12.8 17.9583 12.8 18.4001V20.0001C12.8 20.4419 12.4418 20.8001 12 20.8001C11.5582 20.8001 11.2 20.4419 11.2 20.0001V18.4001C11.2 17.9583 11.5582 17.6001 12 17.6001ZM8.04019 15.9599C8.35261 16.2723 8.35261 16.7789 8.04019 17.0913L6.90882 18.2226C6.5964 18.5351 6.08987 18.5351 5.77745 18.2226C5.46503 17.9102 5.46503 17.4037 5.77745 17.0913L6.90882 15.9599C7.22124 15.6475 7.72777 15.6475 8.04019 15.9599ZM12 9C12.3513 9 12.6768 9.1843 12.8575 9.4855L13.4789 10.5211L14.5145 11.1425C14.8157 11.3232 15 11.6487 15 12C15 12.3513 14.8157 12.6768 14.5145 12.8575L13.4789 13.4789L12.8575 14.5145C12.6768 14.8157 12.3513 15 12 15C11.6487 15 11.3232 14.8157 11.1425 14.5145L10.5211 13.4789L9.4855 12.8575C9.1843 12.6768 9 12.3513 9 12C9 11.6487 9.1843 11.3232 9.4855 11.1425L10.5211 10.5211L11.1425 9.4855C11.3232 9.1843 11.6487 9 12 9Z" fill="#801ED7"/>
</svg>
